X:1
T:Quis est homo
T:Antoine de Févin
T:Source : Bicinia---Tomus I---Wittemberg---G.Rhau---1545. Editor : André Vierendeels (12/06/17).
T:Notes : Original clefs : G2, C3 (C2 from m 15 to m 21) Editorial accidentals above the staff Dotted brackets indicate black notes Original note values have been halved 
T:Quis est homo
T:©
T:©
C:Antoine de Févin
Z:©
%%score [ 1 2 ]
L:1/8
Q:1/4=120
M:2/2
K:C
V:1 treble nm="Soprano" snm="S"
V:2 treble nm="Alto" snm="A"
V:1
 z8 | z8 | z4 G3 A | B2 c4 BA | Bc d4 c2 | d8 | e6 dc | d2 e2 f4 | f2 ed e2 d2- | d2 cB A4 | %10
w: ||Quis _|_ est _ _|_ _ ho- *|mo,|qui _ _|_ _ _|vult _ _ _ vi-||
 G3 A Bcde | dc c4 B2 | c8- | c8 | z4 c4 | f4 f4 | e3 d e2 f2- | fedc d3 c/B/ | A3 B cd e2- | %19
w: ||tam,|_|di-|li- git|di- * ces vi-|* * * * de- * *|re _ _ _ bo-|
 e2 dc d2 e2 | f3 e cd e2- | ed d2 d2 c2 | d4 z2 d2- | d2 B2 c4 | B2 d3 c B2- | B2 AG A4 | %26
w: |||nos, di-|* ver- te|a ma- * *||
 G4 z2 g2- | g2 e2 f4 | e2 g3 f e2- | e2 dc d4 | c2 f3 edc | d2 e4 dc | B3 c d2 G2- | GABc d2 e2- | %34
w: lo et|_ fac bo-|num, in _ qui-||re pa- * * *|* cem _ _|_ et per- se-|* * * * * que-|
 edcB cded/e/ | dc c4 B2 | c8 |] %37
w: |* re e- *|am|
V:2
 C3 D E2 F2- | F2 ED EF G2- | G2 F2 G4- | G2 E2 F4 | G4 E4 | D3 E F2 G2- | GFED C4 | G4 A4- | %8
w: Quis _ _ est|_ _ _ _ _ ho-|* * mo|_ qui vult|vi- *||* * * * ta,|qui vult|
 A4 G4 | F8 | E3 F GA G2 | FEDC D4 | C4 z2 C2 | F4 F4 | E3 D E2 F2- | FEDC D4 | A8- | A4 G4 | %18
w: _ vi-||||tam, di-|li- git|di- * es vi-||de-|* re|
 F3 G A3 G/F/ | G2 A2 B2 A2 | DEFG AG G2- | GFED E4 | z2 D3 C B,2- | B,2 G,2 A,4 | G,4 z2 G2- | %25
w: bo- * * * *|* * * nos,|bo- * * * * * *|* * * * nos,|di- ver- te|_ a ma-|lo et|
 G2 E2 F4 | E2 G3 F E2- | E2 DC D4 | C8 | z4 F4 | A4 F2 G2- | GFED E2 F2 | G4 G,3 A, | %33
w: _ fac bo-|num, in qui- re|_ _ _ pa-|cem,|pa-|cem et per|_ _ _ _ se- que-|re e- *|
 B,CDE F2 G2- | GFED EFGE | FEDC D4 | C8 |] %37
w: |||am.|

